icons/lines/video-remove.svg

<svg xmlns="http://www.w3.org/2000/svg" width="24" height="24" viewBox="0 0 24 24" fill="none" stroke="currentColor" stroke-width="2" stroke-linecap="round" stroke-linejoin="round">
  <path d="M15.48 2.11v4.41" />
  <path d="M19.68 17.32 17.3 19.7" />
  <path d="m19.7 19.68-2.38-2.38" />
  <path d="M2.52 7.11h18.96" />
  <path d="M22 15a7 7 0 0 1-.02.67 1 1 0 0 0-.14-.17A4.4 4.4 0 0 0 18.5 14a4.5 4.5 0 0 0-3.85 6.82 4.2 4.2 0 0 0 .86 1.02 2 2 0 0 0 .16.14A7 7 0 0 1 15 22H9c-5 0-7-2-7-7V9c0-5 2-7 7-7h6c5 0 7 2 7 7z" />
  <path d="M23 18.5a4 4 0 0 1-.13 1.05 4.7 4.7 0 0 1-.52 1.27A4.49 4.49 0 0 1 18.5 23a4.35 4.35 0 0 1-2.82-1.02 1.3 1.3 0 0 1-.17-.14 4.2 4.2 0 0 1-.86-1.02A4.5 4.5 0 0 1 18.5 14a4.4 4.4 0 0 1 3.34 1.5 1 1 0 0 1 .14.17A4.42 4.42 0 0 1 23 18.5" />
  <path d="M8.52 2.11v4.86" />
</svg>

<svg xmlns="http://www.w3.org/2000/svg" width="24" height="24" viewBox="0 0 24 24" fill="none" stroke="currentColor" stroke-width="2" stroke-linecap="round" stroke-linejoin="round" >
  <path d="M22 9V15C22 15.23 22 15.45 21.98 15.67C21.94 15.61 21.89 15.55 21.84 15.5C21.03 14.57 19.83 14 18.5 14C17.24 14 16.09 14.52 15.27 15.36C14.48 16.17 14 17.28 14 18.5C14 19.34 14.24 20.14 14.65 20.82C14.88 21.2 15.17 21.55 15.51 21.84C15.56 21.89 15.61 21.93 15.67 21.98C15.46 22 15.23 22 15 22H9C4 22 2 20 2 15V9C2 4 4 2 9 2H15C20 2 22 4 22 9Z"/>
  <path d="M2.52002 7.10999H21.48"/>
  <path d="M8.52002 2.10999V6.96997"/>
  <path d="M15.48 2.10999V6.52002"/>
  <path d="M23 18.5C23 18.86 22.96 19.21 22.87 19.55C22.76 20 22.58 20.43 22.35 20.82C21.57 22.12 20.14 23 18.5 23C17.42 23 16.44 22.62 15.68 21.98C15.67 21.98 15.67 21.98 15.67 21.98C15.61 21.93 15.56 21.89 15.51 21.84C15.17 21.55 14.88 21.2 14.65 20.82C14.24 20.14 14 19.34 14 18.5C14 17.28 14.48 16.17 15.27 15.36C16.09 14.52 17.24 14 18.5 14C19.83 14 21.03 14.57 21.84 15.5C21.89 15.55 21.94 15.61 21.98 15.67C22.62 16.44 23 17.43 23 18.5Z" stroke-miterlimit="10"/>
  <path d="M19.6998 19.68L17.3198 17.3" stroke-miterlimit="10"/>
  <path d="M19.6798 17.32L17.2998 19.7" stroke-miterlimit="10"/>
  </svg>
